docs/examples/te_gemma/media/graphs.svg

<svg width="1280" height="720" xmlns="http://www.w3.org/2000/svg" xmlns:xlink="http://www.w3.org/1999/xlink" overflow="hidden"><g><rect x="0" y="0" width="1280" height="720" fill="#FFFFFF"/><path d="M645 209 645 446.818" stroke="#000000" stroke-width="2" stroke-miterlimit="8" fill="none" fill-rule="evenodd"/><text font-family="NVIDIA Sans,NVIDIA Sans_MSFontService,sans-serif" font-weight="700" font-size="24" transform="translate(201.111 246)">Without CUDA Graphs</text><text font-family="NVIDIA Sans,NVIDIA Sans_MSFontService,sans-serif" font-weight="700" font-size="24" transform="translate(855.749 246)">With CUDA Graphs</text><rect x="64" y="319" width="91" height="49" stroke="#000000" stroke-width="2" stroke-linejoin="round" stroke-miterlimit="10" fill="#F2F2F2"/><text font-family="NVIDIA Sans,NVIDIA Sans_MSFontService,sans-serif" font-weight="400" font-size="16" transform="translate(75.6135 349)">Launch 1</text><rect x="155" y="371" width="90" height="49" stroke="#000000" stroke-width="2" stroke-linejoin="round" stroke-miterlimit="10" fill="#D9F2D0"/><text font-family="NVIDIA Sans,NVIDIA Sans_MSFontService,sans-serif" font-weight="400" font-size="16" transform="translate(169.288 401)">Kernel 1</text><rect x="245" y="319" width="91" height="49" stroke="#000000" stroke-width="2" stroke-linejoin="round" stroke-miterlimit="10" fill="#F2F2F2"/><text font-family="NVIDIA Sans,NVIDIA Sans_MSFontService,sans-serif" font-weight="400" font-size="16" transform="translate(256.462 349)">Launch 2</text><rect x="336" y="371" width="90" height="49" stroke="#000000" stroke-width="2" stroke-linejoin="round" stroke-miterlimit="10" fill="#D9F2D0"/><text font-family="NVIDIA Sans,NVIDIA Sans_MSFontService,sans-serif" font-weight="400" font-size="16" transform="translate(350.136 401)">Kernel 2</text><rect x="426" y="319" width="91" height="49" stroke="#000000" stroke-width="2" stroke-linejoin="round" stroke-miterlimit="10" fill="#F2F2F2"/><text font-family="NVIDIA Sans,NVIDIA Sans_MSFontService,sans-serif" font-weight="400" font-size="16" transform="translate(437.31 349)">Launch 3</text><rect x="517" y="371" width="90" height="49" stroke="#000000" stroke-width="2" stroke-linejoin="round" stroke-miterlimit="10" fill="#D9F2D0"/><text font-family="NVIDIA Sans,NVIDIA Sans_MSFontService,sans-serif" font-weight="400" font-size="16" transform="translate(530.984 401)">Kernel 3</text><path d="M47 368 621.291 368 621.291 372 47 372ZM619.291 364 631.291 370 619.291 376Z"/><rect x="680" y="319" width="145" height="49" stroke="#000000" stroke-width="2" stroke-linejoin="round" stroke-miterlimit="10" fill="#F2F2F2"/><text font-family="NVIDIA Sans,NVIDIA Sans_MSFontService,sans-serif" font-weight="400" font-size="16" transform="translate(694.058 349)">Launch Graph 1</text><rect x="830" y="370" width="91" height="49" stroke="#000000" stroke-width="2" stroke-linejoin="round" stroke-miterlimit="10" fill="#D9F2D0"/><text font-family="NVIDIA Sans,NVIDIA Sans_MSFontService,sans-serif" font-weight="400" font-size="16" transform="translate(844.463 400)">Kernel 1</text><rect x="924" y="370" width="90" height="49" stroke="#000000" stroke-width="2" stroke-linejoin="round" stroke-miterlimit="10" fill="#D9F2D0"/><text font-family="NVIDIA Sans,NVIDIA Sans_MSFontService,sans-serif" font-weight="400" font-size="16" transform="translate(938.451 400)">Kernel 2</text><rect x="1018" y="370" width="90" height="49" stroke="#000000" stroke-width="2" stroke-linejoin="round" stroke-miterlimit="10" fill="#D9F2D0"/><text font-family="NVIDIA Sans,NVIDIA Sans_MSFontService,sans-serif" font-weight="400" font-size="16" transform="translate(1032.44 400)">Kernel 3</text><path d="M663 368 1237.29 368 1237.29 372 663 372ZM1235.29 364 1247.29 370 1235.29 376Z"/></g></svg>

<?xml version="1.0" encoding="UTF-8" standalone="no"?>
<svg
   width="1280"
   height="303.21127"
   overflow="hidden"
   version="1.1"
   id="svg12"
   xmlns="http://www.w3.org/2000/svg"
   xmlns:svg="http://www.w3.org/2000/svg">
  <defs
     id="defs12">
    <clipPath
       clipPathUnits="userSpaceOnUse"
       id="clipPath16">
      <rect
         style="fill:none;stroke-width:0.96471"
         id="rect16"
         width="1344.0338"
         height="303.21124"
         x="-32.356411"
         y="174.8833" />
    </clipPath>
  </defs>
  <g
     id="g12"
     transform="translate(1.1556091e-7,-174.8833)"
     clip-path="url(#clipPath16)">
    <rect
       x="0"
       y="0"
       width="1280"
       height="720"
       fill="#ffffff"
       id="rect1" />
    <path
       d="M 645,209 V 446.818"
       stroke="#000000"
       stroke-width="2"
       stroke-miterlimit="8"
       fill="none"
       fill-rule="evenodd"
       id="path1" />
    <text
       font-family="'NVIDIA Sans', 'NVIDIA Sans_MSFontService', sans-serif"
       font-weight="700"
       font-size="24px"
       transform="translate(201.111,246)"
       id="text1">Without CUDA Graphs</text>
    <text
       font-family="'NVIDIA Sans', 'NVIDIA Sans_MSFontService', sans-serif"
       font-weight="700"
       font-size="24px"
       transform="translate(855.749,246)"
       id="text2">With CUDA Graphs</text>
    <rect
       x="64"
       y="319"
       width="91"
       height="49"
       stroke="#000000"
       stroke-width="2"
       stroke-linejoin="round"
       stroke-miterlimit="10"
       fill="#f2f2f2"
       id="rect2" />
    <text
       font-family="'NVIDIA Sans', 'NVIDIA Sans_MSFontService', sans-serif"
       font-weight="400"
       font-size="16px"
       transform="translate(75.6135,349)"
       id="text3">Launch 1</text>
    <rect
       x="155"
       y="371"
       width="90"
       height="49"
       stroke="#000000"
       stroke-width="2"
       stroke-linejoin="round"
       stroke-miterlimit="10"
       fill="#d9f2d0"
       id="rect3" />
    <text
       font-family="'NVIDIA Sans', 'NVIDIA Sans_MSFontService', sans-serif"
       font-weight="400"
       font-size="16px"
       transform="translate(169.288,401)"
       id="text4">Kernel 1</text>
    <rect
       x="245"
       y="319"
       width="91"
       height="49"
       stroke="#000000"
       stroke-width="2"
       stroke-linejoin="round"
       stroke-miterlimit="10"
       fill="#f2f2f2"
       id="rect4" />
    <text
       font-family="'NVIDIA Sans', 'NVIDIA Sans_MSFontService', sans-serif"
       font-weight="400"
       font-size="16px"
       transform="translate(256.462,349)"
       id="text5">Launch 2</text>
    <rect
       x="336"
       y="371"
       width="90"
       height="49"
       stroke="#000000"
       stroke-width="2"
       stroke-linejoin="round"
       stroke-miterlimit="10"
       fill="#d9f2d0"
       id="rect5" />
    <text
       font-family="'NVIDIA Sans', 'NVIDIA Sans_MSFontService', sans-serif"
       font-weight="400"
       font-size="16px"
       transform="translate(350.136,401)"
       id="text6">Kernel 2</text>
    <rect
       x="426"
       y="319"
       width="91"
       height="49"
       stroke="#000000"
       stroke-width="2"
       stroke-linejoin="round"
       stroke-miterlimit="10"
       fill="#f2f2f2"
       id="rect6" />
    <text
       font-family="'NVIDIA Sans', 'NVIDIA Sans_MSFontService', sans-serif"
       font-weight="400"
       font-size="16px"
       transform="translate(437.31,349)"
       id="text7">Launch 3</text>
    <rect
       x="517"
       y="371"
       width="90"
       height="49"
       stroke="#000000"
       stroke-width="2"
       stroke-linejoin="round"
       stroke-miterlimit="10"
       fill="#d9f2d0"
       id="rect7" />
    <text
       font-family="'NVIDIA Sans', 'NVIDIA Sans_MSFontService', sans-serif"
       font-weight="400"
       font-size="16px"
       transform="translate(530.984,401)"
       id="text8">Kernel 3</text>
    <path
       d="m 47,368 h 574.291 v 4 H 47 Z m 572.291,-4 12,6 -12,6 z"
       id="path8" />
    <rect
       x="680"
       y="319"
       width="145"
       height="49"
       stroke="#000000"
       stroke-width="2"
       stroke-linejoin="round"
       stroke-miterlimit="10"
       fill="#f2f2f2"
       id="rect8" />
    <text
       font-family="'NVIDIA Sans', 'NVIDIA Sans_MSFontService', sans-serif"
       font-weight="400"
       font-size="16px"
       transform="translate(694.058,349)"
       id="text9">Launch Graph 1</text>
    <rect
       x="830"
       y="370"
       width="91"
       height="49"
       stroke="#000000"
       stroke-width="2"
       stroke-linejoin="round"
       stroke-miterlimit="10"
       fill="#d9f2d0"
       id="rect9" />
    <text
       font-family="'NVIDIA Sans', 'NVIDIA Sans_MSFontService', sans-serif"
       font-weight="400"
       font-size="16px"
       transform="translate(844.463,400)"
       id="text10">Kernel 1</text>
    <rect
       x="924"
       y="370"
       width="90"
       height="49"
       stroke="#000000"
       stroke-width="2"
       stroke-linejoin="round"
       stroke-miterlimit="10"
       fill="#d9f2d0"
       id="rect10" />
    <text
       font-family="'NVIDIA Sans', 'NVIDIA Sans_MSFontService', sans-serif"
       font-weight="400"
       font-size="16px"
       transform="translate(938.451,400)"
       id="text11">Kernel 2</text>
    <rect
       x="1018"
       y="370"
       width="90"
       height="49"
       stroke="#000000"
       stroke-width="2"
       stroke-linejoin="round"
       stroke-miterlimit="10"
       fill="#d9f2d0"
       id="rect11" />
    <text
       font-family="'NVIDIA Sans', 'NVIDIA Sans_MSFontService', sans-serif"
       font-weight="400"
       font-size="16px"
       transform="translate(1032.44,400)"
       id="text12">Kernel 3</text>
    <path
       d="m 663,368 h 574.29 v 4 H 663 Z m 572.29,-4 12,6 -12,6 z"
       id="path12" />
  </g>
</svg>
